img/svg/main-menu-icons/private-ico.svg

<svg width="26" height="26" viewBox="0 0 26 26" fill="none" xmlns="http://www.w3.org/2000/svg">
<g>
   <path d="M16.046 17.1666V16.3352C16.046 14.6836 14.6792 13.3398 12.9991 13.3398C11.3191 13.3398 9.95226 14.6836 9.95226 16.3352V17.1668C8.69583 17.3182 7.71875 18.3902 7.71875 19.6868V24.7649C7.71875 25.3258 8.17345 25.7805 8.73438 25.7805H17.2656C17.8266 25.7805 18.2812 25.3258 18.2812 24.7649V19.6868C18.2812 18.3896 17.3033 17.3172 16.046 17.1666ZM11.9835 16.3352C11.9835 15.8036 12.4391 15.3711 12.9991 15.3711C13.5592 15.3711 14.0148 15.8036 14.0148 16.3352V17.1477H11.9835V16.3352ZM16.25 23.7493H9.75V19.6868C9.75 19.4068 9.9778 19.179 10.2578 19.179H15.7422C16.0222 19.179 16.25 19.4068 16.25 19.6868V23.7493Z"/>
   <path d="M23.4609 8.64827V7.9226C23.4609 4.10548 20.3555 1 16.5383 1C14.8762 1 13.269 1.598 12.013 2.68391C11.182 3.40231 10.539 4.30286 10.1293 5.30376C9.4995 4.98196 8.79618 4.80859 8.07422 4.80859C5.58213 4.80859 3.55469 6.83604 3.55469 9.32813V10.2517C1.52232 10.7075 0 12.5111 0 14.6602C0 15.8674 0.457031 16.9995 1.2868 17.848C2.12677 18.7068 3.2568 19.1797 4.46875 19.1797H5.02739C5.58832 19.1797 6.04302 18.725 6.04302 18.1641C6.04302 17.6031 5.58832 17.1484 5.02739 17.1484H4.4688C3.10197 17.1484 2.0313 16.0555 2.0313 14.6602C2.0313 13.2881 3.16682 12.1719 4.56254 12.1719H4.57036C5.13129 12.1719 5.58599 11.7172 5.58599 11.1563V9.32813C5.58599 7.95607 6.70221 6.83984 8.07427 6.83984C8.78699 6.83984 9.46705 7.14717 9.94002 7.68302C10.2007 7.97831 10.6087 8.09627 10.9867 7.98562C11.3648 7.87497 11.6448 7.55566 11.7051 7.16637C12.0703 4.80895 14.1482 3.03125 16.5383 3.03125C19.2354 3.03125 21.4297 5.22551 21.4297 7.9226V9.17172C21.4297 9.17959 21.4307 9.18726 21.4309 9.19508C21.422 9.56736 21.6178 9.93085 21.9692 10.1173C23.2026 10.7719 23.9688 12.0448 23.9688 13.4391C23.9688 16.4201 21.0562 17.1488 20.9692 17.1697C20.4234 17.283 20.0704 17.8157 20.1799 18.3632C20.2764 18.8461 20.7005 19.1799 21.1747 19.1799C21.2407 19.1799 21.3077 19.1734 21.3749 19.16C21.387 19.1575 22.5906 18.9088 23.7963 17.9772C25.238 16.8632 26 15.2939 26 13.4391C26 11.5029 25.041 9.71929 23.4609 8.64827Z"/>
</g>
</svg>

<svg width="26" height="26" fill="none" xmlns="http://www.w3.org/2000/svg"><path d="M16.046 17.167v-.832c0-1.651-1.367-2.995-3.047-2.995-1.68 0-3.047 1.344-3.047 2.995v.832a2.542 2.542 0 00-2.233 2.52v5.078c0 .56.454 1.015 1.015 1.015h8.532c.56 0 1.015-.454 1.015-1.015v-5.078c0-1.297-.978-2.37-2.235-2.52zm-4.063-.832c0-.531.456-.964 1.016-.964s1.016.433 1.016.964v.813h-2.032v-.813zm4.267 7.414h-6.5v-4.062c0-.28.228-.508.508-.508h5.484c.28 0 .508.228.508.508v4.062z"/><path d="M23.46 8.648v-.725A6.93 6.93 0 0016.539 1a6.92 6.92 0 00-6.409 4.304 4.516 4.516 0 00-6.574 4.024v.924C1.522 10.707 0 12.512 0 14.66c0 1.207.457 2.34 1.287 3.188a4.413 4.413 0 003.182 1.332h.558a1.016 1.016 0 100-2.032H4.47c-1.367 0-2.438-1.093-2.438-2.488 0-1.372 1.136-2.488 2.532-2.488h.007c.561 0 1.016-.455 1.016-1.016V9.328A2.491 2.491 0 018.074 6.84a2.49 2.49 0 011.866.843 1.016 1.016 0 001.765-.517c.365-2.357 2.443-4.135 4.833-4.135a4.897 4.897 0 014.892 4.892v1.272c-.008.372.188.736.54.922a3.755 3.755 0 011.999 3.322c0 2.981-2.913 3.71-3 3.73a1.016 1.016 0 00.406 1.991c.012-.003 1.216-.251 2.421-1.183C25.238 16.863 26 15.294 26 13.44c0-1.936-.959-3.72-2.54-4.79z"/></svg>
